**kern	**kern
*part1	*part1
*staff2	*staff1
*I"Piano	*
*clefF4	*clefG2
*k[f#c#g#d#]	*k[f#c#g#d#]
=1	=1
4E	2g# 2cc# 2ee
4D#	.
4C#	2g# 2cc# 2ee
4BB	.
=	=
*	*^
*	*	*^
4AA#X	(2.ee	4cc#	2.f#\
4GG#	.	4b	.
4FF#	.	4a#X	.
*	*	*v	*v
4AA#)	4cc#) 4ee	4f#
*	*v	*v
=	=
(4BB	2f# 2b 2dd#
4DD#	.
4EE	2e 2g# 2cc#
4CC#)	.
=	=
(4FF#	2.d# 2.f# 2.b
4BB	.
4D#	.
4F#)	4d# 4f# 4b
=	=
*	*^
*	*	*^
4FF#	(4dd#	2f#	4f#\
4F#	4cc#	.	4e\
4FF#	4b	4ryy@	4d#\ 4f#
4F#	4a#X)	4ryy@	4c#\ 4e
*	*	*v	*v
=	=	=
4r	(2a#X	2c# 2e
(4BBB	.	.
4BB	4b)	4B 4d#
4AAn)	[4b	4d#
=	=	=
(4GG#	(4b]	4e
4FF#	4b#X	4d# 4an
4EE	4cc#	4e 4g#
4FF#)	4a#X)	4c# 4e
=	=	=
4r	2a#X	2c# 2e
(4BBB	.	.
4DD#	[2bn	[2Bn [2d#
4FF#	.	.
=	=	=
4BB	4b]	4B] 4d#]
4D#	4b	4B 4d#
4F#	4b	4B 4d#
4BB)	4b	4B 4d#
*	*v	*v
=	=
*-	*-
!!!system-decoration: {(s1,s2)}
